X:532
T:New York Times
C:Colin Hume, 1997
H:For Linda Wolfe, who wrote a wonderful article about English Country Dancing in The New York Times.
H:This dance is not affiliated with, or endorsed by, The New York Times.
L:1/4
M:2/2
S:Colin Hume's website,  colinhume.com  - chords can also be printed below the stave.
Q:1/2=82
K:C
P:A
|: "C"[EG]2 "/"[CE][Ge] | "Dm"[Fd]2 "/"[Ec]2 | "G7"[Fc][GB] "/"[Ac]3/[Bd]/ | "Am"[ce]2 "/"[Ac]2 |\
"F"[Ac]2 "/"[FA][Af] | "Dm"[Ge]2 "/"[Fd]2 | "G"[Ec][DB] "/"[Ec]3/ [Fd]/ |1 "C"[Ge]4 :|2 "A7"[Ge]4 |
P:B
|: "Dm"[df][fa] "/"[eg][df] | "G7"[ce]2 "/"[Bd]2 | "C"[ce][eg] "/"[df][ce] | "A7"[Bd]2 "/"[A^c]2 |\
"Dm"[Fd][Ge] "/"[Af][FA] | "G7"[GB][Ac] "/"[Bd]3/[DF]/ | "C"[CE][DF] "/"[EG][A,C] |1 "G"[B,-D-]2 "/"[B,D][ce] :|2 "G"[B,-D-]2 "/"[B,D][CE] |
P:C
| "Dm7"[DF]2 "/"[EG][FA] | "C/G"[Ge]2 "G7"[Fd]2 | "C"[Ec]4 | "Dm"[CA]2 "G"[DB]2 |]\
"C Last time"[Ec]4 |]

